www/assets/icons/snippet_folder.svg

<svg xmlns="http://www.w3.org/2000/svg" width="24" height="24" viewBox="0 0 24 24" fill='currentColor'><path d="m15.88 10.5 1.62 1.62v3.38h-3v-5zM22 8v10c0 1.1-.9 2-2 2H4c-1.1 0-2-.9-2-2l.01-12c0-1.1.89-2 1.99-2h6l2 2h8c1.1 0 2 .9 2 2m-3 3.5L16.5 9H13v8h6z"/></svg>

<svg width="24" height="24" viewBox="0 0 24 24" xmlns="http://www.w3.org/2000/svg" fill='currentColor'><path d="M15.88 10.5L17.5 12.12V15.5H14.5V10.5H15.88ZM22 8V18C22 19.1 21.1 20 20 20H4C2.9 20 2 19.1 2 18L2.01 6C2.01 4.9 2.9 4 4 4H10L12 6H20C21.1 6 22 6.9 22 8ZM19 11.5L16.5 9H13V17H19V11.5Z"/></svg>
